X: 141801
T: Nugent's Mamma's Pet
T: Peata Mhama\'i
S: B.Breathnach:"Ceol Rince na hEireann" IV/189
Z: B.Black
L: 1/8
M: 4/4
R: reel
K: D
Addc A2 AG|E2 =cE DEFG|Addc ABcA|GE=cE ED D2|
Addc A2 AG|E2 =cE DEFG|Adde fdcA|1 GE=cE ED D2 :|2\
GE=cE EDD ||
A|: d2 fd adfd|c2 ec gcec|d2 fd adfd|eaag eddA|
d2 fd adfd|c2 ec g2 fg|afge d2 cd|eaag ed d2 :|
